svg/rings.svg

<?xml version="1.0" encoding="UTF-8" standalone="no"?>
<!-- Created with Inkscape (http://www.inkscape.org/) -->

<svg
   width="32"
   height="32"
   viewBox="0 0 8.4666666 8.4666668"
   version="1.1"
   id="svg5"
   inkscape:version="1.2 (dc2aeda, 2022-05-15)"
   sodipodi:docname="rings.svg"
   xmlns:inkscape="http://www.inkscape.org/namespaces/inkscape"
   xmlns:sodipodi="http://sodipodi.sourceforge.net/DTD/sodipodi-0.dtd"
   xmlns="http://www.w3.org/2000/svg"
   xmlns:svg="http://www.w3.org/2000/svg"
   xmlns:rdf="http://www.w3.org/1999/02/22-rdf-syntax-ns#"
   xmlns:cc="http://creativecommons.org/ns#">
  <sodipodi:namedview
     id="namedview7"
     pagecolor="#ffffff"
     bordercolor="#111111"
     borderopacity="1"
     inkscape:pageshadow="0"
     inkscape:pageopacity="0"
     inkscape:pagecheckerboard="1"
     inkscape:document-units="mm"
     showgrid="true"
     width="32mm"
     units="px"
     objecttolerance="10000"
     guidetolerance="10000"
     inkscape:snap-perpendicular="true"
     inkscape:snap-tangential="true"
     inkscape:zoom="34.90625"
     inkscape:cx="16.014324"
     inkscape:cy="14.997314"
     inkscape:window-width="2560"
     inkscape:window-height="1301"
     inkscape:window-x="0"
     inkscape:window-y="25"
     inkscape:window-maximized="0"
     inkscape:current-layer="layer1"
     gridtolerance="10000"
     inkscape:showpageshadow="0"
     inkscape:deskcolor="#d1d1d1">
    <inkscape:grid
       type="xygrid"
       id="grid9"
       units="px"
       empspacing="2" />
  </sodipodi:namedview>
  <defs
     id="defs2" />
  <g
     inkscape:label="Layer 1"
     inkscape:groupmode="layer"
     id="layer1">
    <path
       id="path1481"
       style="fill:#000000;stroke-width:0"
       d="m 12,4 a 7.9999994,7.9999994 0 0 0 -8,8 v 8 a 7.9999994,7.9999994 0 0 0 8,8 h 8 a 7.9999994,7.9999994 0 0 0 8,-8 V 12 A 7.9999994,7.9999994 0 0 0 20,4 Z m 0,2 h 8 a 5.9999996,5.9999996 0 0 1 6,6 v 8 a 5.9999996,5.9999996 0 0 1 -6,6 H 12 A 5.9999996,5.9999996 0 0 1 6,20 v -8 a 5.9999996,5.9999996 0 0 1 6,-6 z"
       transform="scale(0.26458333)" />
    <path
       id="path1081"
       style="fill:#000000;stroke-width:0"
       d="m 14,8 a 5.9999996,5.9999996 0 0 0 -6,6 v 4 a 5.9999996,5.9999996 0 0 0 6,6 h 4 a 5.9999996,5.9999996 0 0 0 6,-6 V 14 A 5.9999996,5.9999996 0 0 0 18,8 Z m 0,2 h 4 a 3.9999995,3.9999995 0 0 1 4,4 v 4 a 3.9999995,3.9999995 0 0 1 -4,4 h -4 a 3.9999995,3.9999995 0 0 1 -4,-4 v -4 a 3.9999995,3.9999995 0 0 1 4,-4 z"
       transform="scale(0.26458333)" />
    <path
       id="path1890"
       style="fill:#000000;stroke-width:0"
       d="M 3.96875 3.175 A 0.79374999 0.79374999 0 0 0 3.175 3.96875 L 3.175 4.4979167 A 0.79374999 0.79374999 0 0 0 3.96875 5.2916667 L 4.4979167 5.2916667 A 0.79374999 0.79374999 0 0 0 5.2916667 4.4979167 L 5.2916667 3.96875 A 0.79374999 0.79374999 0 0 0 4.4979167 3.175 L 3.96875 3.175 z M 4.2333333 3.7041667 A 0.52916664 0.52916664 0 0 1 4.7625 4.2333333 A 0.52916664 0.52916664 0 0 1 4.2333333 4.7625 A 0.52916664 0.52916664 0 0 1 3.7041667 4.2333333 A 0.52916664 0.52916664 0 0 1 4.2333333 3.7041667 z " />
  </g>
  <metadata
     id="metadata33">
    <rdf:RDF>
      <cc:Work
         rdf:about="">
        <cc:license
           rdf:resource="http://creativecommons.org/licenses/by-sa/4.0/" />
      </cc:Work>
      <cc:License
         rdf:about="http://creativecommons.org/licenses/by-sa/4.0/">
        <cc:permits
           rdf:resource="http://creativecommons.org/ns#Reproduction" />
        <cc:permits
           rdf:resource="http://creativecommons.org/ns#Distribution" />
        <cc:requires
           rdf:resource="http://creativecommons.org/ns#Notice" />
        <cc:requires
           rdf:resource="http://creativecommons.org/ns#Attribution" />
        <cc:permits
           rdf:resource="http://creativecommons.org/ns#DerivativeWorks" />
        <cc:requires
           rdf:resource="http://creativecommons.org/ns#ShareAlike" />
      </cc:License>
    </rdf:RDF>
  </metadata>
</svg>

<svg width="32" height="32" viewBox="0 0 8.467 8.467" xmlns="http://www.w3.org/2000/svg"><path style="fill:#000;stroke-width:0" d="M12 4a8 8 0 0 0-8 8v8a8 8 0 0 0 8 8h8a8 8 0 0 0 8-8v-8a8 8 0 0 0-8-8Zm0 2h8a6 6 0 0 1 6 6v8a6 6 0 0 1-6 6h-8a6 6 0 0 1-6-6v-8a6 6 0 0 1 6-6z" transform="scale(.26458)"/><path style="fill:#000;stroke-width:0" d="M14 8a6 6 0 0 0-6 6v4a6 6 0 0 0 6 6h4a6 6 0 0 0 6-6v-4a6 6 0 0 0-6-6Zm0 2h4a4 4 0 0 1 4 4v4a4 4 0 0 1-4 4h-4a4 4 0 0 1-4-4v-4a4 4 0 0 1 4-4z" transform="scale(.26458)"/><path style="fill:#000;stroke-width:0" d="M3.969 3.175a.794.794 0 0 0-.794.794v.529a.794.794 0 0 0 .794.794h.529a.794.794 0 0 0 .794-.794v-.53a.794.794 0 0 0-.794-.793h-.53zm.264.53a.53.53 0 0 1 .53.528.53.53 0 0 1-.53.53.53.53 0 0 1-.529-.53.53.53 0 0 1 .53-.529z"/></svg>
